X:1
T:[ID 5-35]
T:[ID 5-35]
T:Bezeichnung standardisiert: Menuett Menuet
T:Urheber unbekannt Datum in der hier transkribierten schriftlichen Quelle: 1773
C:Urheber unbekannt
C:Datum in der hier transkribierten schriftlichen Quelle: 1773
%%score 1 2
L:1/8
M:3/4
K:D
V:1 treble 
V:2 treble 
V:1
 a4 b2 | a2 g2 f2 | g2 f2 e2 | f2 ef d2 | A2 defd | A2 efge | a2 bagf |{f} e6 :: A2 defd | %9
 B2 efge | f2 gefd | c2 Bc A2 | a4 b2 | a2 g2 f2 | A4 B2 | A2 G2 F2 | efgabc | d6 :| %18
V:2
 !fermata!f4 g2 | f2 e2 d2 | e2 d2 c2 | d2 A2 F2 | A2 dcdf | A2 edeg | f2 gfed |{d} c6 :: F2 dcdf | %9
 G2 edeg | d2 ecdB | A2 G2 F2 | f4 g2 | f2 e2 d2 | F4 G2 | F2 E2 D2 | AcAFGE | F6 :| %18

